; generated by PrusaSlicer 2.6.0-alpha5+win64 on 2023-04-29 at 13:27:52 UTC


;
;
; 

; external perimeters extrusion width = 0.45mm
; perimeters extrusion width = 0.45mm
; infill extrusion width = 0.45mm
; solid infill extrusion width = 0.45mm
; top infill extrusion width = 0.40mm
; support material extrusion width = 0.35mm
; first layer extrusion width = 0.42mm

; external perimeters extrusion width = 0.45mm
; perimeters extrusion width = 0.45mm
; infill extrusion width = 0.45mm
; solid infill extrusion width = 0.45mm
; top infill extrusion width = 0.40mm
; support material extrusion width = 0.35mm
; first layer extrusion width = 0.42mm

; external perimeters extrusion width = 0.45mm
; perimeters extrusion width = 0.45mm
; infill extrusion width = 0.45mm
; solid infill extrusion width = 0.45mm
; top infill extrusion width = 0.40mm
; support material extrusion width = 0.35mm
; first layer extrusion width = 0.42mm

; external perimeters extrusion width = 0.45mm
; perimeters extrusion width = 0.45mm
; infill extrusion width = 0.45mm
; solid infill extrusion width = 0.45mm
; top infill extrusion width = 0.40mm
; support material extrusion width = 0.35mm
; first layer extrusion width = 0.42mm

M73 P0 R85
M73 Q0 S86
M201 X1000 Y1000 Z200 E5000 ; sets maximum accelerations, mm/sec^2
M203 X200 Y200 Z12 E120 ; sets maximum feedrates, mm / sec
M204 P1250 R1250 T1250 ; sets acceleration (P, T) and retract acceleration (R), mm/sec^2
M205 X8.00 Y8.00 Z0.40 E4.50 ; sets the jerk limits, mm/sec
M205 S0 T0 ; sets the minimum extruding and travel feed rate, mm/sec
M107
;TYPE:Custom
M862.3 P "MK3S" ; printer model check
M862.1 P0.4 ; nozzle diameter check
M115 U3.12.2 ; tell printer latest fw version
G90 ; use absolute coordinates
M83 ; extruder relative mode
M104 S215 ; set extruder temp
M140 S60 ; set bed temp
M190 S60 ; wait for bed temp
M109 S215 ; wait for extruder temp
G28 W ; home all without mesh bed level
G80 ; mesh bed leveling

G1 Z0.2 F720
G1 Y-3 F1000 ; go outside print area
G92 E0
G1 X60 E9 F1000 ; intro line
M73 Q0 S85
G1 X100 E12.5 F1000 ; intro line

G92 E0
M221 S95

; Don't change E values below. Excessive value can damage the printer.
M907 E430 ; set extruder motor current
G21 ; set units to millimeters
G90 ; use absolute coordinates
M83 ; use relative distances for extrusion
M900 K0.05 ; Filament gcode LA 1.5
M900 K30 ; Filament gcode LA 1.0
M107
;LAYER_CHANGE
;Z:0.2
;HEIGHT:0.2
;BEFORE_LAYER_CHANGE
G92 E0.0
;0.2


M73 P0 R84
G1 E-.8 F2100
G1 Z.4 F720
;AFTER_LAYER_CHANGE
;0.2
G1 X100.152 Y21.446 F10800
G1 Z.2 F720
G1 E.8 F2100
M204 S800
;TYPE:Skirt/Brim
;WIDTH:0.42
G1 F1200
G1 X100.317 Y20.822 E.02024
G1 X100.874 Y19.944 E.0326
G1 X105.23 Y15.416 E.197
G1 X106.054 Y14.798 E.03229
G1 X107.17 Y14.436 E.03679
G1 X107.797 Y14.389 E.01971
G1 X141.084 Y14.637 E1.04372
G1 X141.885 Y14.78 E.02551
G1 X142.747 Y15.23 E.03049
G1 X143.284 Y15.741 E.02324
G1 X143.716 Y16.507 E.02757
G1 X149.566 Y37.103 E.67132
G1 X149.67 Y37.866 E.02414
G1 X144.712 Y136.31 E3.09055
G1 X142.177 Y183.753 E1.48966
G1 X141.876 Y184.55 E.02671
G1 X141.241 Y185.333 E.03161
G1 X141.062 Y185.48 E.00726
G1 X139.618 Y185.989 E.04801
G1 X110.653 Y186.313 E.90823
G1 X110.056 Y186.26 E.01879
G1 X109.139 Y185.93 E.03056
G1 X108.417 Y185.37 E.02865
G1 X107.881 Y184.571 E.03017
G1 X107.715 Y184.1 E.01566
G1 X107.626 Y183.513 E.01862
G1 X105.126 Y136.502 E1.47608
G1 X100.126 Y38.184 E3.08668
G1 X100.152 Y21.506 E.52293
M204 S1000
; printing object Trigger.stl id:0 copy 0
;WIPE_START
G1 F8640
G1 X100.317 Y20.822 E-.16247
G1 X100.874 Y19.944 E-.24009
G1 X102.067 Y18.704 E-.39744
;WIPE_END
G1 Z.6 F720
G1 X107.72 Y17.651 F10800
G1 Z.2 F720
G1 E.8 F2100
M204 S800
;TYPE:Perimeter
;WIDTH:0.419999
G1 F1200
G1 X107.829 Y17.631 E.00347
G1 X139.993 Y17.87 E1.00851
G1 X139.794 Y18.696 E.02664
G1 X139.552 Y20.049 E.0431
G1 X139.406 Y21.407 E.04282
G1 X139.357 Y22.77 E.04276
G1 X139.406 Y24.131 E.0427
G1 X139.548 Y25.469 E.04219
G1 X139.794 Y26.841 E.0437
G1 X140.132 Y28.184 E.04342
G1 X140.565 Y29.515 E.04389
G1 X141.092 Y30.832 E.04448
G1 X141.712 Y32.133 E.04519
G1 X142.405 Y33.385 E.04487
G1 X143.222 Y34.674 E.04785
G1 X144.104 Y35.904 E.04746
G1 X144.583 Y36.516 E.02437
G1 X145.076 Y37.104 E.02406
G1 X145.474 Y37.475 E.01706
G1 X144.492 Y37.444 E.03081
G1 X103.418 Y37.746 E1.28788
G1 X103.422 Y22.111 E.49022
G1 X104.092 Y21.838 E.02268
G1 X104.799 Y21.485 E.02478
G1 X105.727 Y20.886 E.03463
G1 X106.273 Y20.427 E.02236
G1 X106.673 Y20.008 E.01816
G1 X106.921 Y19.671 E.01312
G1 X107.31 Y19.079 E.02221
G1 X107.65 Y18.18 E.03014
G1 X107.712 Y17.71 E.01486
M204 S1000
G1 X107.374 Y17.397 F10800
M204 S800
;TYPE:External perimeter
G1 F1200
G1 X107.432 Y17.348 E.00238
G1 X107.796 Y17.253 E.0118
G1 X140.488 Y17.497 E1.02506
G1 X140.321 Y18.099 E.01959
G1 X140.165 Y18.763 E.02139
G1 X139.927 Y20.089 E.04224
G1 X139.783 Y21.421 E.04201
G1 X139.734 Y22.756 E.04189
G1 X139.781 Y24.091 E.04188
G1 X139.857 Y24.805 E.02251
G1 X140.008 Y25.901 E.03469
G1 X140.16 Y26.749 E.02701
G1 X140.491 Y28.068 E.04264
G1 X140.916 Y29.376 E.04312
G1 X141.433 Y30.67 E.04369
G1 X142.042 Y31.95 E.04444
G1 X142.741 Y33.212 E.04523
G1 X143.528 Y34.454 E.0461
G1 X144.397 Y35.666 E.04676
G1 X144.872 Y36.274 E.02419
G1 X145.382 Y36.88 E.02483
G1 X146.289 Y37.648 E.03726
G1 X146.371 Y37.832 E.00632
G1 X145.775 Y37.862 E.01871
G1 X144.495 Y37.821 E.04015
G1 X103.468 Y38.127 E1.28641
G1 X103.303 Y38.114 E.00519
G1 X103.041 Y38.01 E.00884
G1 X103.045 Y21.884 E.50562
G1 X103.106 Y21.832 E.00251
G1 X103.925 Y21.5 E.02771
G1 X104.596 Y21.167 E.02349
G1 X105.486 Y20.596 E.03315
G1 X106 Y20.166 E.02101
G1 X106.4 Y19.748 E.01814
G1 X106.959 Y18.94 E.03081
G1 X107.276 Y18.13 E.02727
G1 X107.366 Y17.457 E.02129
M204 S1000
G1 X107.45 Y17.408 F10800
;WIPE_START
G1 F8640
G1 X107.432 Y17.348 E-.02942
G1 X107.796 Y17.253 E-.08686
G1 X110.757 Y17.275 E-.68372
;WIPE_END
G1 Z.6 F720
G1 X128.331 Y26.554 F10800
G1 Z.2 F720
G1 E.8 F2100
M204 S800
;TYPE:Perimeter
G1 F1200
G1 X128.529 Y26.98 E.01473
G1 X128.614 Y27.237 E.00849
G1 X128.659 Y27.742 E.0159
G1 X128.584 Y28.238 E.01573
G1 X128.401 Y28.701 E.01561
G1 X128.127 Y29.118 E.01564
G1 X127.764 Y29.496 E.01643
G1 X127.222 Y29.895 E.0211
G1 X126.716 Y30.163 E.01795
G1 X126.186 Y30.368 E.01782
G1 X125.624 Y30.523 E.01828
G1 X124.753 Y30.659 E.02764
G1 X124.117 Y30.688 E.01996
G1 X115.669 Y30.688 E.26488
G1 X115.093 Y30.665 E.01807
G1 X114.225 Y30.537 E.02751
G1 X113.653 Y30.386 E.01855
G1 X112.892 Y30.078 E.02574
G1 X112.219 Y29.66 E.02484
G1 X111.824 Y29.308 E.01659
G1 X111.511 Y28.916 E.01573
G1 X111.238 Y28.357 E.01951
G1 X111.134 Y27.86 E.01592
G1 X111.168 Y27.271 E.0185
G1 X111.333 Y26.753 E.01705
G1 X111.596 Y26.312 E.0161
G1 X111.941 Y25.924 E.01628
G1 X112.353 Y25.589 E.01665
G1 X112.819 Y25.307 E.01708
G1 X113.33 Y25.076 E.01758
G1 X113.877 Y24.896 E.01806
G1 X114.452 Y24.766 E.01848
G1 X115.045 Y24.688 E.01875
G1 X115.669 Y24.66 E.01958
G1 X124.117 Y24.66 E.26488
G1 X124.978 Y24.713 E.02705
G1 X125.573 Y24.814 E.01892
G1 X126.132 Y24.962 E.01813
G1 X126.894 Y25.271 E.02578
G1 X127.37 Y25.546 E.01724
G1 X127.946 Y26.026 E.02351
G1 X128.274 Y26.432 E.01636
G1 X128.305 Y26.5 E.00234
M204 S1000
G1 X128.232 Y27.281 F10800
M204 S800
;TYPE:External perimeter
G1 F1200
G1 X128.285 Y27.697 E.01315
G1 X128.23 Y28.108 E.013
G1 X128.081 Y28.5 E.01315
G1 X127.85 Y28.862 E.01346
G1 X127.541 Y29.193 E.0142
G1 X126.999 Y29.592 E.0211
G1 X126.544 Y29.827 E.01606
G1 X126.052 Y30.016 E.01653
G1 X125.525 Y30.159 E.01712
G1 X124.697 Y30.286 E.02626
G1 X124.125 Y30.311 E.01795
G1 X115.669 Y30.311 E.26513
G1 X115.109 Y30.288 E.01757
G1 X114.281 Y30.164 E.02625
G1 X113.751 Y30.022 E.0172
G1 X113.035 Y29.729 E.02426
G1 X112.421 Y29.342 E.02276
G1 X112.058 Y29.007 E.01549
G1 X111.79 Y28.654 E.0139
G1 X111.604 Y28.268 E.01343
G1 X111.511 Y27.849 E.01346
G1 X111.544 Y27.294 E.01743
G1 X111.722 Y26.819 E.0159
G1 X111.958 Y26.461 E.01344
G1 X112.27 Y26.135 E.01415
G1 X112.825 Y25.742 E.02132
G1 X113.482 Y25.421 E.02293
G1 X113.993 Y25.255 E.01685
G1 X114.533 Y25.135 E.01734
G1 X115.093 Y25.062 E.01771
G1 X115.661 Y25.037 E.01783
G1 X124.117 Y25.037 E.26513
G1 X124.954 Y25.09 E.0263
G1 X125.509 Y25.185 E.01765
G1 X126.034 Y25.326 E.01704
G1 X126.75 Y25.619 E.02426
G1 X127.204 Y25.889 E.01656
G1 X127.701 Y26.313 E.02048
G1 X128.005 Y26.717 E.01585
G1 X128.222 Y27.222 E.01723
M204 S1000
G1 X128.618 Y27.389 F10800
;WIPE_START
G1 F8640
G1 X128.285 Y27.697 E-.11064
G1 X128.23 Y28.108 E-.09575
G1 X128.081 Y28.5 E-.09683
G1 X127.85 Y28.862 E-.09916
G1 X127.541 Y29.193 E-.10456
G1 X126.999 Y29.592 E-.1554
G1 X126.544 Y29.827 E-.11825
G1 X126.466 Y29.857 E-.01941
;WIPE_END
G1 Z.6 F720
G1 X139.629 Y18.657 F10800
G1 Z.2 F720
G1 E.8 F2100
M204 S800
;TYPE:Solid infill
;WIDTH:0.422361
G1 F1200
G1 X139.176 Y18.203 E.02023
G1 X138.636 Y18.199 E.01704
G1 X139.401 Y18.965 E.03416
G1 X139.32 Y19.42 E.01458
G1 X138.095 Y18.195 E.05466
G1 X137.554 Y18.191 E.01707
G1 X139.238 Y19.875 E.07514
G1 X139.178 Y20.351 E.01514
G1 X137.014 Y18.187 E.09656
G1 X136.473 Y18.183 E.01707
G1 X139.126 Y20.836 E.11838
G1 X139.074 Y21.321 E.01539
G1 X135.933 Y18.179 E.14017
G1 X135.392 Y18.175 E.01707
G1 X139.051 Y21.834 E.16326
G1 X139.033 Y22.353 E.01638
G1 X134.851 Y18.171 E.1866
G1 X134.311 Y18.167 E.01704
G1 X139.021 Y22.878 E.21018
G1 X139.041 Y23.435 E.01759
G1 X133.77 Y18.163 E.23521
G1 X133.229 Y18.159 E.01707
G1 X139.062 Y23.991 E.26024
G1 X139.112 Y24.579 E.01862
G1 X132.689 Y18.155 E.28661
G1 X132.148 Y18.151 E.01707
G1 X139.176 Y25.179 E.31358
G1 X139.263 Y25.803 E.01988
G1 X131.607 Y18.147 E.34161
G1 X131.067 Y18.143 E.01704
G1 X139.38 Y26.456 E.37092
G1 X139.517 Y27.13 E.0217
G1 X130.526 Y18.139 E.40117
G1 X129.986 Y18.135 E.01704
M73 P1 R84
G1 X139.697 Y27.846 E.4333
G1 X139.8 Y28.259 E.01343
M73 Q1 S85
G1 X139.909 Y28.595 E.01114
G1 X129.445 Y18.131 E.4669
G1 X128.904 Y18.127 E.01707
G1 X140.166 Y29.389 E.5025
G1 X140.496 Y30.256 E.02927
G1 X128.364 Y18.123 E.54134
G1 X127.823 Y18.119 E.01707
G1 X140.883 Y31.179 E.58273
G1 X141.367 Y32.199 E.03562
G1 X127.282 Y18.115 E.62844
G1 X126.742 Y18.111 E.01704
G1 X142.019 Y33.389 E.68167
G1 X142.908 Y34.813 E.05296
G1 X126.201 Y18.107 E.74543
G1 X125.66 Y18.103 E.01707
G1 X144.494 Y36.936 E.84034
G1 X144.64 Y37.109 E.00714
M73 Q1 S84
G1 X144.129 Y37.108 E.01612
G1 X125.12 Y18.099 E.84817
G1 X124.579 Y18.095 E.01707
G1 X143.596 Y37.112 E.84853
G1 X143.063 Y37.116 E.01682
G1 X124.039 Y18.091 E.84886
G1 X123.498 Y18.087 E.01707
M73 P1 R83
G1 X142.531 Y37.119 E.84922
G1 X141.998 Y37.123 E.01682
G1 X122.957 Y18.083 E.84957
G1 X122.417 Y18.079 E.01704
G1 X141.465 Y37.127 E.84991
G1 X140.933 Y37.131 E.01679
G1 X121.876 Y18.075 E.85029
G1 X121.335 Y18.071 E.01707
G1 X140.4 Y37.135 E.85065
G1 X139.867 Y37.139 E.01682
G1 X120.795 Y18.067 E.85098
G1 X120.254 Y18.063 E.01707
G1 X139.335 Y37.143 E.85136
G1 X138.802 Y37.147 E.01682
G1 X128.962 Y27.307 E.43905
G1 X129.003 Y27.689 E.01212
G1 X128.981 Y27.863 E.00553
G1 X138.27 Y37.151 E.41445
G1 X137.737 Y37.155 E.01682
G1 X128.91 Y28.328 E.39386
G1 X128.767 Y28.722 E.01322
G1 X137.204 Y37.159 E.37645
G1 X136.672 Y37.163 E.01679
G1 X128.565 Y29.056 E.36173
G1 X128.349 Y29.377 E.01221
G1 X136.139 Y37.167 E.34758
G1 X135.606 Y37.171 E.01682
G1 X128.085 Y29.649 E.3356
G1 X127.975 Y29.762 E.00498
G1 X127.794 Y29.896 E.00711
G1 X135.074 Y37.175 E.32481
G1 X134.541 Y37.179 E.01682
G1 X127.485 Y30.123 E.31483
G1 X127.144 Y30.319 E.01241
G1 X134.008 Y37.183 E.30627
G1 X133.476 Y37.187 E.01679
G1 X126.787 Y30.498 E.29846
G1 X126.399 Y30.646 E.0131
G1 X132.943 Y37.191 E.29201
G1 X132.41 Y37.195 E.01682
G1 X125.99 Y30.775 E.28646
G1 X125.559 Y30.88 E.014
G1 X131.878 Y37.199 E.28195
G1 X131.345 Y37.203 E.01682
G1 X125.093 Y30.95 E.27898
G1 X124.61 Y31.004 E.01533
G1 X130.813 Y37.207 E.27677
G1 X130.28 Y37.211 E.01682
G1 X124.097 Y31.028 E.27588
G1 X123.56 Y31.028 E.01694
G1 X129.747 Y37.215 E.27606
G1 X129.215 Y37.219 E.01679
G1 X123.024 Y31.028 E.27624
G1 X122.487 Y31.028 E.01694
G1 X128.682 Y37.223 E.27642
G1 X128.149 Y37.227 E.01682
G1 X121.951 Y31.028 E.27657
G1 X121.414 Y31.028 E.01694
G1 X127.617 Y37.231 E.27677
G1 X127.084 Y37.235 E.01682
G1 X120.877 Y31.028 E.27695
G1 X120.341 Y31.028 E.01691
G1 X126.551 Y37.239 E.27711
G1 X126.019 Y37.242 E.01679
G1 X119.804 Y31.028 E.27729
G1 X119.267 Y31.028 E.01694
G1 X125.486 Y37.246 E.27747
G1 X124.953 Y37.25 E.01682
G1 X118.731 Y31.028 E.27762
G1 X118.194 Y31.028 E.01694
G1 X124.421 Y37.254 E.27782
G1 X123.888 Y37.258 E.01682
G1 X117.658 Y31.028 E.27798
G1 X117.121 Y31.028 E.01694
G1 X123.356 Y37.262 E.27818
G1 X122.823 Y37.266 E.01682
G1 X116.584 Y31.028 E.27836
G1 X116.048 Y31.028 E.01691
G1 X122.29 Y37.27 E.27851
G1 X121.758 Y37.274 E.01679
G1 X115.505 Y31.021 E.279
G1 X114.929 Y30.982 E.01821
G1 X121.225 Y37.278 E.28092
G1 X120.692 Y37.282 E.01682
G1 X114.296 Y30.886 E.28539
G1 X114.08 Y30.853 E.00689
G1 X113.588 Y30.715 E.01612
G1 X120.328 Y37.455 E.30073
M204 S1000
;WIPE_START
G1 F8640
G1 X117.878 Y35.005 E-.8
;WIPE_END
G1 Z.6 F720
G1 X126.64 Y24.986 F10800
G1 Z.2 F720
G1 E.8 F2100
M204 S800
G1 F1200
G1 X119.713 Y18.059 E.30908
G1 X119.173 Y18.055 E.01704
G1 X125.59 Y24.472 E.28632
G1 X124.958 Y24.376 E.02017
G1 X118.632 Y18.051 E.28224
G1 X118.092 Y18.047 E.01704
G1 X124.382 Y24.337 E.28066
G1 X123.829 Y24.32 E.01746
G1 X117.551 Y18.042 E.28012
G1 X117.01 Y18.038 E.01707
G1 X123.292 Y24.32 E.2803
G1 X122.756 Y24.32 E.01691
G1 X116.47 Y18.034 E.28048
G1 X115.929 Y18.03 E.01707
G1 X122.219 Y24.32 E.28066
G1 X121.682 Y24.32 E.01694
G1 X115.388 Y18.026 E.28083
G1 X114.848 Y18.022 E.01704
G1 X121.146 Y24.32 E.28101
G1 X120.609 Y24.32 E.01694
G1 X114.307 Y18.018 E.28119
G1 X113.766 Y18.014 E.01707
G1 X120.072 Y24.32 E.28137
G1 X119.536 Y24.32 E.01691
G1 X113.226 Y18.01 E.28155
G1 X112.685 Y18.006 E.01707
G1 X118.999 Y24.32 E.28173
G1 X118.463 Y24.32 E.01691
G1 X112.145 Y18.002 E.28191
G1 X111.604 Y17.998 E.01707
G1 X117.926 Y24.32 E.28208
G1 X117.389 Y24.32 E.01694
G1 X111.063 Y17.994 E.28226
G1 X110.523 Y17.99 E.01704
G1 X116.853 Y24.32 E.28244
G1 X116.316 Y24.32 E.01694
G1 X109.982 Y17.986 E.28262
G1 X109.441 Y17.982 E.01707
M73 P2 R83
G1 X115.78 Y24.32 E.28282
G1 X115.261 Y24.339 E.01639
G1 X108.901 Y17.978 E.2838
G1 X108.36 Y17.974 E.01707
M73 Q2 S84
G1 X114.768 Y24.382 E.28592
G1 X114.301 Y24.452 E.0149
G1 X107.996 Y18.147 E.28133
G1 X107.933 Y18.431 E.00918
G1 X107.879 Y18.566 E.00459
G1 X113.862 Y24.549 E.26696
G1 X113.454 Y24.677 E.01349
G1 X107.726 Y18.95 E.25556
G1 X107.563 Y19.323 E.01284
G1 X113.065 Y24.825 E.2455
G1 X112.695 Y24.992 E.01281
G1 X107.349 Y19.646 E.23854
G1 X107.13 Y19.963 E.01216
G1 X112.356 Y25.19 E.2332
G1 X112.194 Y25.284 E.00591
G1 X112.039 Y25.409 E.00628
G1 X106.894 Y20.264 E.22957
G1 X106.633 Y20.54 E.01198
G1 X111.741 Y25.648 E.22792
G1 X111.483 Y25.926 E.01197
G1 X106.357 Y20.8 E.22872
G1 X106.065 Y21.045 E.01203
G1 X111.249 Y26.229 E.23131
G1 X111.048 Y26.565 E.01235
G1 X105.756 Y21.273 E.23613
G1 X105.43 Y21.483 E.01223
G1 X110.904 Y26.958 E.24427
G1 X110.846 Y27.118 E.00537
G1 X110.824 Y27.414 E.00936
G1 X105.103 Y21.693 E.25527
G1 X104.758 Y21.884 E.01244
G1 X111.01 Y28.136 E.27896
M204 S1000
;WIPE_START
G1 F8640
G1 X108.56 Y25.686 E-.8
;WIPE_END
G1 Z.6 F720
G1 X104.274 Y21.937 F10800
G1 Z.2 F720
G1 E.8 F2100
M204 S800
G1 F1200
G1 X110.993 Y28.656 E.2998
G1 X111.235 Y29.114 E.01634
G1 X111.566 Y29.531 E.0168
G1 X112.027 Y29.94 E.01944
G1 X112.679 Y30.342 E.02417
G1 X119.627 Y37.29 E.31002
G1 X119.094 Y37.294 E.01682
G1 X104.03 Y22.23 E.67215
G1 X103.762 Y22.339 E.00913
G1 X103.762 Y22.498 E.00502
G1 X118.562 Y37.298 E.66037
G1 X118.029 Y37.302 E.01682
G1 X103.761 Y23.034 E.63663
G1 X103.761 Y23.571 E.01694
G1 X117.496 Y37.306 E.61285
G1 X116.964 Y37.31 E.01679
G1 X103.761 Y24.107 E.58911
G1 X103.761 Y24.644 E.01694
G1 X116.431 Y37.314 E.56533
G1 X115.899 Y37.318 E.01679
G1 X103.761 Y25.18 E.54159
G1 X103.761 Y25.717 E.01694
G1 X115.366 Y37.322 E.51781
G1 X114.833 Y37.326 E.01682
G1 X103.76 Y26.253 E.49407
G1 X103.76 Y26.79 E.01694
M73 Q2 S83
