; generated by PrusaSlicer 2.5.1+win64 on 2023-04-18 at 19:51:49 UTC

; 

; external perimeters extrusion width = 0.45mm
; perimeters extrusion width = 0.45mm
; infill extrusion width = 0.45mm
; solid infill extrusion width = 0.45mm
; top infill extrusion width = 0.40mm
; first layer extrusion width = 0.42mm

M73 P0 R76
M73 Q0 S76
M201 X1000 Y1000 Z200 E5000 ; sets maximum accelerations, mm/sec^2
M203 X200 Y200 Z12 E120 ; sets maximum feedrates, mm / sec
M204 P1250 R1250 T1250 ; sets acceleration (P, T) and retract acceleration (R), mm/sec^2
M205 X8.00 Y8.00 Z0.40 E4.50 ; sets the jerk limits, mm/sec
M205 S0 T0 ; sets the minimum extruding and travel feed rate, mm/sec
M107
;TYPE:Custom
M862.3 P "MK3S" ; printer model check
M862.1 P0.4 ; nozzle diameter check
M115 U3.10.1 ; tell printer latest fw version
G90 ; use absolute coordinates
M83 ; extruder relative mode
M104 S215 ; set extruder temp
M140 S60 ; set bed temp
M190 S60 ; wait for bed temp
M109 S215 ; wait for extruder temp
G28 W ; home all without mesh bed level
G80 ; mesh bed leveling
G1 Z0.2 F720
G1 Y-3 F1000 ; go outside print area
G92 E0
G1 X60 E9 F1000 ; intro line
G1 X100 E12.5 F1000 ; intro line
G92 E0
M221 S95

; Don't change E values below. Excessive value can damage the printer.
M907 E430 ; set extruder motor current
G21 ; set units to millimeters
G90 ; use absolute coordinates
M83 ; use relative distances for extrusion
M900 K0.05 ; Filament gcode LA 1.5
M900 K30 ; Filament gcode LA 1.0
M107
;LAYER_CHANGE
;Z:0.2
;HEIGHT:0.2
;BEFORE_LAYER_CHANGE
G92 E0.0
;0.2


G1 E-.8 F2100
G1 Z.4 F720
;AFTER_LAYER_CHANGE
;0.2
G1 X105.597 Y96.49 F10800
G1 Z.2 F720
G1 E.8 F2100
M204 S800
;TYPE:Skirt/Brim
;WIDTH:0.42
G1 F1200
G1 X106.604 Y95.417 E.04612
G1 X107.926 Y95.018 E.0433
G1 X141.225 Y93.69 E1.0449
G1 X142.657 Y94.026 E.04612
G1 X143.712 Y95.051 E.04612
G1 X144.088 Y96.38 E.0433
G1 X144.084 Y97.952 E.04928
G1 X143.953 Y99.51 E.04903
G1 X143.523 Y101.815 E.07352
G1 X142.818 Y104.051 E.07352
G1 X141.849 Y106.186 E.07352
G1 X140.692 Y108.098 E.07005
G1 X139.686 Y109.436 E.0525
G1 X138.17 Y111.077 E.07005
G1 X136.916 Y112.187 E.0525
G1 X135.103 Y113.492 E.07005
G1 X133.653 Y114.329 E.0525
G1 X131.615 Y115.245 E.07005
G1 X130.026 Y115.775 E.0525
G1 X127.847 Y116.265 E.07005
G1 X126.184 Y116.466 E.0525
G1 X124.067 Y116.512 E.06641
G1 X122.392 Y116.388 E.05267
G1 X120.739 Y116.118 E.0525
G1 X118.581 Y115.539 E.07005
G1 X117.016 Y114.945 E.0525
G1 X115.017 Y113.946 E.07005
G1 X113.603 Y113.05 E.0525
G1 X111.844 Y111.672 E.07005
G1 X110.637 Y110.511 E.0525
G1 X109.191 Y108.809 E.07005
G1 X108.24 Y107.43 E.0525
G1 X107.163 Y105.473 E.07005
G1 X106.507 Y103.932 E.0525
G1 X105.873 Y101.911 E.06641
G1 X105.527 Y100.268 E.05267
G1 X105.286 Y97.927 E.07376
G1 X105.584 Y96.548 E.04424
M204 S1000
G1 X105.964 Y96.639 F10800
M204 S800
G1 F1200
G1 X105.979 Y96.579 E.00195
G1 X106.973 Y95.644 E.04278
G1 X107.941 Y95.395 E.03134
G1 X141.24 Y94.067 E1.0449
G1 X142.562 Y94.406 E.04278
G1 X143.479 Y95.416 E.04278
G1 X143.711 Y96.389 E.03134
G1 X143.667 Y98.599 E.06931
G1 X143.47 Y100.216 E.05108
G1 X142.985 Y102.365 E.0691
G1 X142.218 Y104.533 E.07209
G1 X141.251 Y106.49 E.06845
G1 X140.323 Y107.968 E.05471
G1 X138.964 Y109.703 E.0691
G1 X137.835 Y110.877 E.05108
G1 X136.155 Y112.304 E.0691
G1 X134.814 Y113.229 E.05108
G1 X132.884 Y114.291 E.06909
G1 X131.385 Y114.929 E.05108
G1 X129.28 Y115.584 E.0691
G1 X127.684 Y115.909 E.05108
G1 X125.492 Y116.13 E.0691
G1 X123.863 Y116.129 E.05108
G1 X121.785 Y115.923 E.06545
G1 X120.167 Y115.603 E.05172
G1 X118.603 Y115.149 E.05108
G1 X116.559 Y114.325 E.06909
G1 X115.117 Y113.568 E.05108
G1 X113.279 Y112.352 E.06909
G1 X112.017 Y111.321 E.05108
G1 X110.538 Y109.848 E.06545
G1 X109.487 Y108.576 E.05172
G1 X108.563 Y107.235 E.05108
G1 X107.5 Y105.305 E.06909
G1 X106.862 Y103.806 E.05108
G1 X106.208 Y101.701 E.0691
G1 X105.883 Y100.105 E.05108
G1 X105.662 Y97.906 E.06931
G1 X105.95 Y96.697 E.03895
M204 S1000
; printing object LED_lens_test.stl id:0 copy 0
;WIPE_START
G1 F8640
G1 X105.979 Y96.579 E-.0282
G1 X106.973 Y95.644 E-.31505
G1 X107.941 Y95.395 E-.23083
G1 X108.746 Y95.363 E-.18592
;WIPE_END
G1 E-.04 F2100
G1 Z.6 F720
G1 X109.314 Y98.507 F10800
G1 Z.2 F720
G1 E.8 F2100
M204 S800
;TYPE:Perimeter
;WIDTH:0.419999
G1 F1200
G1 X111.174 Y98.433 E.05837
G1 X111.277 Y99.284 E.0269
G1 X111.376 Y99.818 E.01701
G1 X111.493 Y100.345 E.01693
G1 X111.783 Y101.364 E.0332
G1 X111.997 Y101.964 E.01999
G1 X112.196 Y102.433 E.01595
G1 X112.405 Y102.906 E.01622
G1 X112.775 Y103.644 E.02588
G1 X113.14 Y104.267 E.02266
G1 X113.498 Y104.813 E.02046
G1 X113.809 Y105.248 E.01677
G1 X114.2 Y105.746 E.01986
G1 X114.817 Y106.441 E.02915
G1 X115.277 Y106.904 E.02046
G1 X116.083 Y107.62 E.03379
G1 X116.508 Y107.955 E.01698
G1 X116.949 Y108.276 E.01708
G1 X117.454 Y108.609 E.01897
G1 X118.373 Y109.135 E.03321
G1 X118.858 Y109.376 E.01698
G1 X119.854 Y109.803 E.03398
G1 X120.886 Y110.151 E.03415
G1 X121.494 Y110.313 E.01973
G1 X122.11 Y110.447 E.01976
G1 X122.937 Y110.577 E.02627
G1 X124.122 Y110.679 E.03728
G1 X125.24 Y110.682 E.03504
G1 X126.222 Y110.603 E.03089
G1 X126.868 Y110.514 E.02046
G1 X127.396 Y110.417 E.01683
G1 X128.435 Y110.164 E.03351
G1 X128.943 Y110.009 E.01666
G1 X129.536 Y109.798 E.01973
G1 X130.512 Y109.378 E.03333
G1 X130.997 Y109.135 E.01701
G1 X131.935 Y108.594 E.03395
G1 X132.828 Y107.982 E.03395
G1 X133.305 Y107.609 E.01898
G1 X133.783 Y107.198 E.01975
G1 X134.24 Y106.766 E.01972
G1 X134.677 Y106.314 E.01973
G1 X135.092 Y105.841 E.01973
G1 X135.485 Y105.351 E.01971
G1 X135.84 Y104.863 E.0189
G1 X136.187 Y104.339 E.01973
G1 X136.714 Y103.418 E.03324
G1 X136.955 Y102.934 E.01698
G1 X137.382 Y101.938 E.03398
G1 X137.562 Y101.437 E.01669
G1 X137.73 Y100.906 E.01747
G1 X137.892 Y100.298 E.01973
G1 X138.093 Y99.284 E.03239
G1 X138.169 Y98.75 E.01693
G1 X138.227 Y98.177 E.01805
G1 X138.259 Y97.353 E.02587
G1 X140.12 Y97.279 E.05839
G1 X140.116 Y97.738 E.01441
G1 X140.078 Y98.356 E.01939
G1 X140.015 Y98.974 E.0195
G1 X139.816 Y100.198 E.03887
G1 X139.598 Y101.109 E.02937
G1 X139.331 Y102.007 E.02937
G1 X138.89 Y103.166 E.03887
G1 X138.635 Y103.733 E.0195
G1 X138.357 Y104.289 E.0195
G1 X138.057 Y104.834 E.0195
G1 X137.735 Y105.366 E.0195
G1 X137.392 Y105.883 E.01944
G1 X136.954 Y106.483 E.02331
G1 X136.237 Y107.356 E.03541
G1 X135.819 Y107.809 E.01934
G1 X135.379 Y108.249 E.0195
G1 X134.921 Y108.67 E.0195
G1 X134.447 Y109.073 E.0195
G1 X133.958 Y109.456 E.0195
G1 X133.453 Y109.82 E.0195
G1 X132.934 Y110.163 E.0195
G1 X132.401 Y110.484 E.0195
G1 X131.856 Y110.784 E.0195
G1 X131.3 Y111.062 E.0195
G1 X130.734 Y111.316 E.01944
G1 X130.043 Y111.589 E.02331
G1 X128.971 Y111.943 E.03541
G1 X127.768 Y112.239 E.03883
G1 X127.158 Y112.351 E.01944
G1 X126.421 Y112.45 E.02331
G1 X125.295 Y112.538 E.03541
G1 X124.057 Y112.537 E.03883
G1 X123.438 Y112.499 E.01944
G1 X122.699 Y112.419 E.02331
G1 X121.585 Y112.235 E.03541
G1 X120.983 Y112.1 E.01933
G1 X120.382 Y111.938 E.0195
G1 X119.789 Y111.753 E.0195
G1 X119.203 Y111.544 E.0195
G1 X118.626 Y111.311 E.0195
G1 X118.059 Y111.056 E.0195
G1 X117.502 Y110.778 E.0195
G1 X116.958 Y110.478 E.0195
G1 X116.426 Y110.156 E.0195
G1 X115.907 Y109.812 E.0195
G1 X115.402 Y109.449 E.0195
G1 X114.913 Y109.065 E.0195
G1 X114.439 Y108.662 E.0195
G1 X113.984 Y108.241 E.01944
G1 X113.462 Y107.712 E.02331
G1 X112.715 Y106.864 E.03541
G1 X112.335 Y106.379 E.01934
G1 X111.973 Y105.875 E.01944
G1 X111.567 Y105.252 E.02331
G1 X111.005 Y104.273 E.03541
G1 X110.477 Y103.157 E.03871
G1 X110.012 Y101.894 E.04221
G1 X109.816 Y101.271 E.02047
G1 X109.549 Y100.17 E.0355
G1 X109.433 Y99.526 E.02053
G1 X109.321 Y98.566 E.03029
M204 S1000
G1 X108.904 Y98.146 F10800
M204 S800
;TYPE:External perimeter
G1 F1200
G1 X111.517 Y98.042 E.082
G1 X111.65 Y99.226 E.03737
G1 X111.859 Y100.252 E.03284
G1 X111.99 Y100.749 E.01611
G1 X112.138 Y101.238 E.01601
G1 X112.344 Y101.817 E.01927
G1 X112.742 Y102.737 E.03144
G1 X113.101 Y103.455 E.02516
G1 X113.458 Y104.063 E.02211
G1 X113.805 Y104.595 E.01991
G1 X114.105 Y105.016 E.01621
G1 X114.486 Y105.501 E.01932
G1 X115.092 Y106.183 E.02861
G1 X115.539 Y106.633 E.01991
G1 X116.319 Y107.326 E.03269
G1 X116.73 Y107.65 E.01643
G1 X117.158 Y107.962 E.01658
G1 X117.661 Y108.294 E.01893
G1 X118.551 Y108.802 E.03211
G1 X119.02 Y109.036 E.01643
G1 X119.984 Y109.449 E.0329
G1 X120.983 Y109.787 E.03307
G1 X121.574 Y109.945 E.01918
G1 X122.173 Y110.075 E.01919
G1 X122.983 Y110.203 E.02574
G1 X124.133 Y110.302 E.03619
G1 X125.216 Y110.306 E.03394
G1 X126.181 Y110.228 E.03035
G1 X126.81 Y110.141 E.01991
G1 X127.321 Y110.047 E.01629
G1 X128.325 Y109.803 E.03241
G1 X128.817 Y109.654 E.01611
G1 X129.391 Y109.45 E.01911
G1 X130.354 Y109.035 E.03286
G1 X131.283 Y108.547 E.0329
G1 X131.731 Y108.276 E.01643
G1 X132.596 Y107.685 E.03286
G1 X133.06 Y107.323 E.01843
G1 X133.524 Y106.924 E.0192
G1 X133.969 Y106.504 E.01917
G1 X134.394 Y106.064 E.01918
G1 X134.798 Y105.605 E.01918
G1 X135.181 Y105.128 E.01917
G1 X135.526 Y104.655 E.01837
G1 X135.873 Y104.13 E.01973
G1 X136.129 Y103.7 E.0157
G1 X136.381 Y103.241 E.01643
G1 X136.83 Y102.294 E.03285
G1 X137.203 Y101.323 E.03262
G1 X137.366 Y100.808 E.01692
G1 X137.524 Y100.217 E.01918
G1 X137.654 Y99.619 E.01918
G1 X137.756 Y99.016 E.01919
G1 X137.833 Y98.383 E.01999
G1 X137.877 Y97.795 E.01849
G1 X137.886 Y96.99 E.02522
G1 X140.5 Y96.886 E.08204
G1 X140.493 Y97.751 E.02713
G1 X140.454 Y98.386 E.01994
G1 X140.39 Y99.02 E.01998
G1 X140.3 Y99.651 E.01998
G1 X140.185 Y100.276 E.01994
G1 X139.962 Y101.207 E.03
G1 X139.689 Y102.124 E.03001
G1 X139.476 Y102.723 E.01993
G1 X139.237 Y103.314 E.01998
G1 X138.976 Y103.895 E.01998
G1 X138.691 Y104.464 E.01998
G1 X138.383 Y105.023 E.01998
M73 P0 R75
G1 X138.053 Y105.568 E.01998
G1 X137.702 Y106.098 E.01995
G1 X137.252 Y106.714 E.02392
G1 X136.522 Y107.604 E.03609
G1 X136.091 Y108.071 E.01992
G1 X135.64 Y108.521 E.01998
G1 X135.171 Y108.953 E.01998
G1 X134.686 Y109.365 E.01998
G1 X134.184 Y109.758 E.01998
G1 X133.667 Y110.13 E.01998
G1 X133.135 Y110.481 E.01997
G1 X132.59 Y110.811 E.01998
G1 X132.032 Y111.118 E.01998
G1 X131.461 Y111.402 E.01998
G1 X130.881 Y111.663 E.01996
G1 X130.171 Y111.943 E.02392
G1 X129.079 Y112.305 E.03609
G1 X128.465 Y112.469 E.01992
G1 X127.843 Y112.609 E.01998
G1 X127.217 Y112.723 E.01995
G1 X126.461 Y112.825 E.02392
G1 X125.314 Y112.915 E.03609
G1 X124.678 Y112.927 E.01992
G1 X124.041 Y112.914 E.01998
G1 X123.406 Y112.875 E.01996
G1 X122.648 Y112.793 E.02392
G1 X121.512 Y112.606 E.03609
G1 X120.893 Y112.466 E.01992
G1 X120.277 Y112.301 E.01998
G1 X119.669 Y112.111 E.01998
G1 X119.069 Y111.897 E.01998
G1 X118.478 Y111.658 E.01998
G1 X117.897 Y111.397 E.01998
G1 X117.327 Y111.112 E.01998
G1 X116.769 Y110.804 E.01998
G1 X116.224 Y110.474 E.01998
G1 X115.693 Y110.123 E.01998
G1 X115.176 Y109.75 E.01998
G1 X114.674 Y109.357 E.01998
G1 X114.189 Y108.944 E.01997
G1 X113.722 Y108.512 E.01996
G1 X113.186 Y107.969 E.02392
G1 X112.425 Y107.105 E.03609
G1 X112.033 Y106.605 E.01992
G1 X111.662 Y106.089 E.01996
G1 X111.246 Y105.449 E.02392
G1 X110.673 Y104.451 E.03609
G1 X110.389 Y103.882 E.01992
G1 X110.128 Y103.303 E.01993
G1 X109.783 Y102.41 E.03001
G1 X109.487 Y101.5 E.03001
G1 X109.323 Y100.886 E.01993
G1 X109.183 Y100.264 E.01998
G1 X109.068 Y99.637 E.01998
G1 X108.979 Y99.008 E.01994
G1 X108.909 Y98.206 E.02525
M204 S1000
G1 X109.262 Y98.324 F10800
;WIPE_START
G1 F8640
G1 X111.517 Y98.042 E-.60339
G1 X111.593 Y98.716 E-.15661
;WIPE_END
G1 E-.04 F2100
G1 Z.6 F720
G1 X139.263 Y97.426 F10800
G1 Z.2 F720
G1 E.8 F2100
M204 S800
;TYPE:Solid infill
;WIDTH:0.425297
G1 F1200
G1 X139.818 Y97.981 E.02495
G1 X139.781 Y98.485 E.01607
G1 X138.906 Y97.61 E.03933
G1 X138.535 Y97.625 E.0118
G1 X138.527 Y97.772 E.00468
G1 X139.729 Y98.974 E.05405
G1 X139.653 Y99.439 E.01498
G1 X138.499 Y98.285 E.0519
G1 X138.45 Y98.776 E.0157
G1 X139.578 Y99.904 E.05071
G1 X139.488 Y100.355 E.01462
G1 X138.386 Y99.252 E.04956
G1 X138.307 Y99.715 E.01491
G1 X139.383 Y100.791 E.04839
G1 X139.27 Y101.219 E.01406
G1 X138.211 Y100.16 E.0476
G1 X138.105 Y100.595 E.01423
G1 X139.146 Y101.635 E.0468
G1 X139.062 Y101.918 E.00937
G1 X139.014 Y102.044 E.00429
G1 X137.991 Y101.021 E.04601
G1 X137.86 Y101.431 E.01369
G1 X138.865 Y102.436 E.04519
G1 X138.716 Y102.828 E.01333
G1 X137.721 Y101.833 E.04474
G1 X137.574 Y102.227 E.01336
G1 X138.557 Y103.209 E.04418
G1 X138.383 Y103.576 E.0129
G1 X137.414 Y102.607 E.04355
G1 X137.246 Y102.98 E.013
G1 X138.209 Y103.942 E.04327
G1 X138.027 Y104.302 E.0128
G1 X137.072 Y103.346 E.04295
G1 X136.884 Y103.699 E.01271
G1 X137.835 Y104.65 E.04276
G1 X137.812 Y104.691 E.0015
G1 X137.627 Y104.983 E.01099
G1 X136.691 Y104.047 E.04212
G1 X136.489 Y104.386 E.01254
G1 X137.418 Y105.315 E.04176
G1 X137.208 Y105.646 E.01246
G1 X136.277 Y104.714 E.04188
G1 X136.061 Y105.04 E.01241
G1 X136.984 Y105.962 E.04149
G1 X136.756 Y106.275 E.0123
G1 X135.834 Y105.353 E.04146
G1 X135.6 Y105.66 E.01227
G1 X136.514 Y106.573 E.04108
G1 X136.27 Y106.87 E.01222
G1 X135.359 Y105.96 E.04093
G1 X135.109 Y106.25 E.01219
G1 X136.026 Y107.167 E.04124
G1 X135.761 Y107.443 E.01216
G1 X134.854 Y106.537 E.04077
M73 Q0 S75
G1 X134.589 Y106.812 E.01216
G1 X135.496 Y107.719 E.04079
G1 X135.231 Y107.995 E.01216
G1 X134.318 Y107.082 E.04105
G1 X134.04 Y107.344 E.01216
G1 X134.948 Y108.252 E.04084
G1 X134.661 Y108.506 E.01218
G1 X133.752 Y107.597 E.04087
G1 X133.46 Y107.846 E.0122
G1 X134.374 Y108.76 E.0411
G1 X134.074 Y109 E.01223
G1 X133.157 Y108.084 E.04122
G1 X132.849 Y108.316 E.01228
G1 X133.765 Y109.232 E.04119
G1 X133.456 Y109.464 E.01228
G1 X132.532 Y108.54 E.04153
G1 X132.206 Y108.756 E.01241
G1 X133.136 Y109.685 E.04181
G1 X132.805 Y109.895 E.01246
G1 X131.876 Y108.966 E.04177
G1 X131.533 Y109.164 E.01258
G1 X132.474 Y110.104 E.04228
G1 X132.259 Y110.24 E.00806
G1 X132.136 Y110.307 E.00447
G1 X131.184 Y109.356 E.04279
G1 X130.828 Y109.54 E.01276
G1 X131.787 Y110.499 E.04312
G1 X131.726 Y110.533 E.00222
G1 X131.423 Y110.676 E.01064
G1 X130.46 Y109.713 E.04332
G1 X130.085 Y109.879 E.01304
G1 X131.057 Y110.85 E.04368
G1 X130.69 Y111.024 E.01291
G1 X129.701 Y110.036 E.04445
G1 X129.305 Y110.18 E.01341
G1 X130.306 Y111.181 E.045
G1 X129.916 Y111.332 E.01328
G1 X128.901 Y110.317 E.04564
G1 X128.487 Y110.443 E.01378
G1 X129.51 Y111.467 E.04602
G1 X129.104 Y111.601 E.01361
G1 X128.058 Y110.555 E.04705
G1 X127.621 Y110.659 E.01427
G1 X128.684 Y111.723 E.04781
G1 X128.25 Y111.829 E.01421
G1 X127.172 Y110.751 E.04849
G1 X126.705 Y110.825 E.01502
G1 X127.816 Y111.936 E.04995
G1 X127.365 Y112.025 E.01463
G1 X126.226 Y110.887 E.0512
G1 X125.733 Y110.934 E.01576
G1 X126.899 Y112.1 E.05243
G1 X126.422 Y112.164 E.01529
G1 X125.224 Y110.966 E.0539
G1 X124.691 Y110.974 E.01692
G1 X125.922 Y112.205 E.05535
G1 X125.421 Y112.244 E.016
G1 X124.139 Y110.962 E.05764
G1 X123.563 Y110.927 E.01835
G1 X124.891 Y112.255 E.0597
G1 X124.349 Y112.255 E.0172
G1 X122.96 Y110.865 E.06248
G1 X122.323 Y110.769 E.02049
G1 X123.792 Y112.238 E.06605
G1 X123.203 Y112.189 E.01879
G1 X121.65 Y110.637 E.06983
G1 X120.927 Y110.454 E.02372
G1 X122.587 Y112.114 E.07466
G1 X121.939 Y112.007 E.02088
G1 X120.142 Y110.21 E.08081
G1 X119.257 Y109.866 E.03019
G1 X121.264 Y111.873 E.09026
G1 X120.522 Y111.671 E.02446
G1 X117.794 Y108.943 E.12267
M204 S1000
;WIPE_START
G1 F8640
G1 X120.121 Y111.271 E-.76
;WIPE_END
G1 E-.04 F2100
G1 Z.6 F720
G1 X111.134 Y99.039 F10800
G1 Z.2 F720
G1 E.8 F2100
M204 S800
G1 F1200
G1 X110.825 Y98.73 E.01392
G1 X110.305 Y98.75 E.01655
G1 X111.021 Y99.467 E.0322
G1 X111.152 Y100.139 E.02179
G1 X109.784 Y98.771 E.06151
G1 X109.625 Y98.777 E.00507
G1 X109.679 Y99.206 E.01375
G1 X111.335 Y100.862 E.07444
G1 X111.586 Y101.654 E.02642
G1 X109.777 Y99.845 E.08133
G1 X109.93 Y100.538 E.02257
G1 X111.937 Y102.546 E.09026
G1 X112.086 Y102.898 E.01216
G1 X112.424 Y103.573 E.024
G1 X110.106 Y101.256 E.10421
G1 X110.361 Y102.051 E.02655
G1 X113.224 Y104.914 E.12875
G1 X113.553 Y105.379 E.01812
G1 X113.984 Y105.929 E.0222
G1 X114.369 Y106.377 E.0188
G1 X114.802 Y106.838 E.0201
