; generated by PrusaSlicer 2.5.1+win64 on 2023-04-18 at 19:52:55 UTC

; 

; external perimeters extrusion width = 0.45mm
; perimeters extrusion width = 0.45mm
; infill extrusion width = 0.45mm
; solid infill extrusion width = 0.45mm
; top infill extrusion width = 0.40mm
; first layer extrusion width = 0.42mm

M73 P0 R21
M73 Q0 S21
M201 X1000 Y1000 Z200 E5000 ; sets maximum accelerations, mm/sec^2
M203 X200 Y200 Z12 E120 ; sets maximum feedrates, mm / sec
M204 P1250 R1250 T1250 ; sets acceleration (P, T) and retract acceleration (R), mm/sec^2
M205 X8.00 Y8.00 Z0.40 E4.50 ; sets the jerk limits, mm/sec
M205 S0 T0 ; sets the minimum extruding and travel feed rate, mm/sec
M107
;TYPE:Custom
M862.3 P "MK3S" ; printer model check
M862.1 P0.4 ; nozzle diameter check
M115 U3.10.1 ; tell printer latest fw version
G90 ; use absolute coordinates
M83 ; extruder relative mode
M104 S215 ; set extruder temp
M140 S60 ; set bed temp
M190 S60 ; wait for bed temp
M109 S215 ; wait for extruder temp
G28 W ; home all without mesh bed level
G80 ; mesh bed leveling
G1 Z0.2 F720
G1 Y-3 F1000 ; go outside print area
G92 E0
G1 X60 E9 F1000 ; intro line
G1 X100 E12.5 F1000 ; intro line
G92 E0
M221 S95

; Don't change E values below. Excessive value can damage the printer.
M907 E430 ; set extruder motor current
G21 ; set units to millimeters
G90 ; use absolute coordinates
M83 ; use relative distances for extrusion
M900 K0.05 ; Filament gcode LA 1.5
M900 K30 ; Filament gcode LA 1.0
M107
;LAYER_CHANGE
;Z:0.2
;HEIGHT:0.2
;BEFORE_LAYER_CHANGE
G92 E0.0
;0.2


G1 E-.8 F2100
G1 Z.4 F720
;AFTER_LAYER_CHANGE
;0.2
G1 X122.965 Y84.363 F10800
G1 Z.2 F720
G1 E.8 F2100
M204 S800
;TYPE:Skirt/Brim
;WIDTH:0.42
G1 F1200
G1 X123.782 Y83.766 E.03172
G1 X124.696 Y83.533 E.02958
G1 X143.082 Y83.531 E.57648
G1 X143.563 Y83.605 E.01526
G1 X144.307 Y83.923 E.02538
G1 X144.692 Y84.22 E.01526
G1 X145.144 Y84.78 E.02254
G1 X145.382 Y85.299 E.01792
G1 X145.508 Y85.971 E.02141
G1 X145.491 Y86.423 E.0142
G1 X145.348 Y87.006 E.01883
G1 X128.381 Y124.949 E1.30319
G1 X127.928 Y125.637 E.02583
G1 X127.546 Y125.979 E.01608
G1 X127.012 Y126.278 E.01918
G1 X126.032 Y126.473 E.03132
G1 X107.812 Y126.469 E.57128
G1 X106.981 Y126.28 E.02672
G1 X106.224 Y125.802 E.02807
G1 X105.695 Y125.127 E.02689
G1 X105.446 Y124.469 E.02208
G1 X105.398 Y123.606 E.02709
G1 X105.548 Y122.983 E.02009
G1 X122.512 Y85.051 E1.30284
G1 X122.932 Y84.413 E.02397
M204 S1000
; printing object LT_Ammo_count.stl id:0 copy 0
;WIPE_START
M73 P1 R21
M73 Q1 S21
G1 F8640
G1 X123.782 Y83.766 E-.24662
G1 X124.696 Y83.533 E-.21781
G1 X125.976 Y83.532 E-.29557
;WIPE_END
G1 E-.04 F2100
G1 Z.6 F720
G1 X125.244 Y86.693 F10800
G1 Z.2 F720
G1 E.8 F2100
M204 S800
;TYPE:Perimeter
;WIDTH:0.419999
G1 F1200
G1 X142.028 Y86.691 E.52624
G1 X125.647 Y123.309 E1.25775
G1 X108.865 Y123.309 E.5262
G1 X111.068 Y118.384 E.16916
G1 X126.379 Y118.383 E.48006
G1 X126.801 Y118.271 E.01369
G1 X127.053 Y118.097 E.00963
G1 X127.263 Y117.81 E.01113
G1 X128.962 Y113.982 E.13132
G1 X128.958 Y113.524 E.01435
G1 X128.848 Y113.226 E.00996
G1 X128.565 Y112.924 E.01299
G1 X128.247 Y112.776 E.01099
G1 X128.017 Y112.745 E.00729
G1 X113.59 Y112.744 E.45232
G1 X115.794 Y107.82 E.16916
G1 X131.105 Y107.819 E.48009
G1 X131.452 Y107.744 E.01113
G1 X131.715 Y107.585 E.00963
G1 X131.99 Y107.245 E.01369
G1 X133.688 Y103.418 E.13129
G1 X133.684 Y102.96 E.01435
G1 X133.574 Y102.662 E.00996
G1 X133.291 Y102.36 E.01299
G1 X132.973 Y102.212 E.011
G1 X132.742 Y102.181 E.0073
G1 X118.316 Y102.18 E.45231
G1 X120.519 Y97.256 E.16916
G1 X135.83 Y97.255 E.48006
G1 X136.252 Y97.143 E.01369
G1 X136.505 Y96.968 E.00963
G1 X136.715 Y96.682 E.01113
G1 X138.414 Y92.854 E.13132
G1 X138.41 Y92.396 E.01435
G1 X138.3 Y92.098 E.00996
G1 X138.017 Y91.795 E.01299
G1 X137.699 Y91.648 E.011
G1 X137.468 Y91.617 E.00729
G1 X123.042 Y91.616 E.45233
G1 X125.22 Y86.747 E.16723
M204 S1000
G1 X124.998 Y86.319 F10800
M204 S800
;TYPE:External perimeter
G1 F1200
G1 X142.61 Y86.314 E.55219
G1 X125.892 Y123.686 E1.28365
G1 X108.283 Y123.686 E.55211
M73 P2 R21
M73 Q2 S21
G1 X110.823 Y118.007 E.19506
G1 X126.379 Y118.006 E.48772
G1 X126.44 Y117.996 E.00194
G1 X126.763 Y117.856 E.01104
G1 X126.919 Y117.656 E.00795
G1 X128.586 Y113.92 E.12826
G1 X128.582 Y113.55 E.0116
G1 X128.434 Y113.301 E.0091
G1 X128.235 Y113.168 E.00751
G1 X128.017 Y113.122 E.00699
G1 X113.009 Y113.122 E.47056
G1 X115.549 Y107.443 E.19506
G1 X131.105 Y107.442 E.48775
G1 X131.439 Y107.328 E.01106
G1 X131.646 Y107.091 E.00984
G1 X133.312 Y103.356 E.12823
G1 X133.308 Y102.986 E.0116
G1 X133.16 Y102.737 E.00909
G1 X132.961 Y102.604 E.00751
G1 X132.742 Y102.558 E.007
G1 X117.735 Y102.557 E.47055
G1 X120.275 Y96.879 E.19506
G1 X135.83 Y96.878 E.48773
G1 X135.891 Y96.868 E.00194
G1 X136.215 Y96.728 E.01104
G1 X136.371 Y96.528 E.00796
G1 X138.038 Y92.792 E.12826
G1 X138.034 Y92.422 E.0116
G1 X137.886 Y92.173 E.0091
G1 X137.686 Y92.04 E.00751
G1 X137.468 Y91.994 E.00699
G1 X122.46 Y91.993 E.47057
G1 X124.974 Y86.374 E.19301
M204 S1000
G1 X125.394 Y86.376 F10800
;WIPE_START
G1 F8640
G1 X128.265 Y86.363 E-.76
;WIPE_END
G1 E-.04 F2100
G1 Z.6 F720
G1 X141.095 Y86.805 F10800
G1 Z.2 F720
G1 E.8 F2100
M204 S800
;TYPE:Solid infill
;WIDTH:0.422789
G1 F1200
G1 X141.491 Y87.2 E.01766
G1 X141.325 Y87.571 E.01284
G1 X140.728 Y86.974 E.02666
G1 X140.191 Y86.974 E.01697
G1 X141.159 Y87.942 E.04324
G1 X140.993 Y88.313 E.01284
G1 X139.653 Y86.974 E.05982
G1 X139.116 Y86.974 E.01697
G1 X140.826 Y88.684 E.0764
G1 X140.66 Y89.056 E.01284
G1 X138.579 Y86.974 E.09298
G1 X138.042 Y86.974 E.01697
G1 X140.494 Y89.427 E.10956
G1 X140.328 Y89.798 E.01284
G1 X137.504 Y86.974 E.12614
G1 X136.967 Y86.974 E.01697
G1 X140.162 Y90.169 E.14272
G1 X139.996 Y90.54 E.01284
G1 X136.43 Y86.974 E.1593
G1 X135.893 Y86.974 E.01697
G1 X139.83 Y90.912 E.17589
G1 X139.664 Y91.283 E.01284
G1 X135.356 Y86.974 E.19247
G1 X134.818 Y86.974 E.01697
G1 X139.498 Y91.654 E.20905
G1 X139.332 Y92.025 E.01284
G1 X134.281 Y86.974 E.22563
G1 X133.744 Y86.974 E.01697
M73 P2 R20
M73 Q3 S21
G1 X139.166 Y92.396 E.24221
G1 X139 Y92.767 E.01284
M73 P3 R20
G1 X138.698 Y92.466 E.01347
G1 X138.691 Y92.363 E.00326
G1 X138.535 Y91.94 E.01423
G1 X138.41 Y91.772 E.00664
G1 X138.167 Y91.555 E.01028
G1 X138.009 Y91.465 E.00573
G1 X137.757 Y91.371 E.0085
G1 X137.58 Y91.348 E.00563
G1 X133.207 Y86.974 E.19537
G1 X132.669 Y86.974 E.01697
G1 X137.029 Y91.334 E.19476
G1 X136.492 Y91.334 E.01697
G1 X132.132 Y86.974 E.19476
G1 X131.595 Y86.974 E.01697
G1 X135.955 Y91.334 E.19476
G1 X135.418 Y91.334 E.01697
G1 X131.058 Y86.974 E.19476
G1 X130.52 Y86.974 E.01697
M73 Q3 S20
G1 X134.88 Y91.334 E.19476
G1 X134.343 Y91.334 E.01697
G1 X129.983 Y86.974 E.19476
G1 X129.446 Y86.974 E.01697
G1 X133.806 Y91.334 E.19476
G1 X133.269 Y91.334 E.01697
G1 X128.909 Y86.974 E.19476
G1 X128.371 Y86.974 E.01697
G1 X132.731 Y91.334 E.19476
G1 X132.194 Y91.334 E.01697
G1 X127.834 Y86.974 E.19476
G1 X127.297 Y86.974 E.01697
G1 X131.657 Y91.334 E.19476
G1 X131.12 Y91.334 E.01697
G1 X126.76 Y86.974 E.19476
G1 X126.223 Y86.974 E.01697
G1 X130.583 Y91.334 E.19476
G1 X130.045 Y91.334 E.01697
G1 X125.685 Y86.974 E.19476
G1 X125.428 Y86.974 E.00812
G1 X125.342 Y87.167 E.0067
G1 X129.508 Y91.334 E.18611
G1 X128.971 Y91.334 E.01697
G1 X125.176 Y87.539 E.16953
G1 X125.01 Y87.91 E.01284
G1 X128.434 Y91.334 E.15294
G1 X127.896 Y91.334 E.01697
G1 X124.844 Y88.281 E.13636
G1 X124.678 Y88.652 E.01284
G1 X127.359 Y91.334 E.11978
G1 X126.822 Y91.334 E.01697
G1 X124.512 Y89.023 E.1032
G1 X124.346 Y89.394 E.01284
G1 X126.285 Y91.334 E.08662
G1 X125.747 Y91.334 E.01697
G1 X124.18 Y89.766 E.07003
G1 X124.014 Y90.137 E.01284
G1 X125.21 Y91.333 E.05345
G1 X124.673 Y91.333 E.01697
G1 X123.848 Y90.508 E.03687
G1 X123.682 Y90.879 E.01284
G1 X124.136 Y91.333 E.02029
G1 X123.598 Y91.333 E.01697
G1 X123.387 Y91.122 E.00944
M204 S1000
;WIPE_START
G1 F8640
G1 X123.598 Y91.333 E-.06902
G1 X124.136 Y91.333 E-.12405
G1 X123.682 Y90.879 E-.1483
G1 X123.848 Y90.508 E-.09389
G1 X124.673 Y91.333 E-.26952
G1 X124.912 Y91.333 E-.05522
;WIPE_END
G1 E-.04 F2100
G1 Z.6 F720
G1 X138.527 Y92.832 F10800
G1 Z.2 F720
G1 E.8 F2100
M204 S800
G1 F1200
G1 X138.834 Y93.139 E.01371
G1 X138.668 Y93.51 E.01284
G1 X138.503 Y93.345 E.00738
G1 X138.338 Y93.717 E.01286
G1 X138.502 Y93.881 E.00733
G1 X138.336 Y94.252 E.01284
G1 X138.173 Y94.089 E.00728
G1 X138.008 Y94.461 E.01286
G1 X138.17 Y94.623 E.00722
G1 X138.004 Y94.994 E.01284
G1 X137.843 Y94.834 E.00717
G1 X137.678 Y95.206 E.01286
G1 X137.838 Y95.366 E.00712
G1 X137.672 Y95.737 E.01284
G1 X137.513 Y95.578 E.00707
G1 X137.348 Y95.951 E.01286
G1 X137.506 Y96.108 E.00702
G1 X137.34 Y96.479 E.01284
G1 X137.184 Y96.323 E.00697
G1 X137.019 Y96.695 E.01286
G1 X137.174 Y96.85 E.00692
G1 X137.007 Y97.221 E.01284
G1 X136.819 Y97.033 E.00843
G1 X136.715 Y97.159 E.00516
G1 X136.533 Y97.284 E.00697
G1 X136.841 Y97.593 E.01378
G1 X136.675 Y97.964 E.01284
G1 X136.179 Y97.467 E.02219
G1 X135.838 Y97.538 E.01098
G1 X135.712 Y97.538 E.00398
G1 X136.509 Y98.335 E.03561
G1 X136.343 Y98.706 E.01284
G1 X135.175 Y97.538 E.05219
G1 X134.638 Y97.538 E.01697
G1 X136.177 Y99.077 E.06877
G1 X136.011 Y99.448 E.01284
G1 X134.101 Y97.538 E.08534
G1 X133.563 Y97.538 E.01697
G1 X135.845 Y99.82 E.10192
G1 X135.679 Y100.191 E.01284
G1 X133.026 Y97.538 E.1185
G1 X132.489 Y97.538 E.01697
G1 X135.513 Y100.562 E.13508
G1 X135.347 Y100.933 E.01284
G1 X131.952 Y97.538 E.15166
G1 X131.415 Y97.538 E.01697
G1 X135.181 Y101.304 E.16824
G1 X135.015 Y101.675 E.01284
G1 X130.877 Y97.538 E.18482
G1 X130.34 Y97.538 E.01697
G1 X134.849 Y102.047 E.2014
G1 X134.683 Y102.418 E.01284
G1 X129.803 Y97.538 E.21798
G1 X129.266 Y97.538 E.01697
G1 X134.517 Y102.789 E.23456
G1 X134.351 Y103.16 E.01284
G1 X128.729 Y97.538 E.25114
G1 X128.191 Y97.538 E.01697
M73 Q4 S20
G1 X132.551 Y101.898 E.19476
G1 X132.014 Y101.898 E.01697
M73 P4 R20
G1 X127.654 Y97.538 E.19476
G1 X127.117 Y97.538 E.01697
G1 X131.477 Y101.898 E.19475
G1 X130.94 Y101.898 E.01697
G1 X126.58 Y97.538 E.19475
G1 X126.043 Y97.538 E.01697
G1 X130.402 Y101.898 E.19475
G1 X129.865 Y101.898 E.01697
G1 X125.505 Y97.538 E.19475
G1 X124.968 Y97.538 E.01697
G1 X129.328 Y101.898 E.19475
G1 X128.791 Y101.898 E.01697
G1 X124.431 Y97.538 E.19474
G1 X123.894 Y97.538 E.01697
G1 X128.254 Y101.898 E.19474
G1 X127.716 Y101.898 E.01697
G1 X123.357 Y97.538 E.19474
G1 X122.82 Y97.538 E.01697
G1 X127.179 Y101.898 E.19474
G1 X126.642 Y101.898 E.01697
G1 X122.282 Y97.538 E.19474
G1 X121.745 Y97.538 E.01697
G1 X126.105 Y101.898 E.19474
G1 X125.567 Y101.898 E.01697
G1 X121.208 Y97.538 E.19473
G1 X120.703 Y97.538 E.01596
G1 X120.693 Y97.561 E.00077
G1 X125.03 Y101.898 E.19374
G1 X124.493 Y101.898 E.01697
G1 X120.527 Y97.932 E.17716
G1 X120.361 Y98.303 E.01284
G1 X123.956 Y101.898 E.16058
G1 X123.418 Y101.898 E.01697
G1 X120.195 Y98.674 E.144
G1 X120.029 Y99.045 E.01284
G1 X122.881 Y101.898 E.12742
G1 X122.344 Y101.898 E.01697
G1 X119.863 Y99.416 E.11084
G1 X119.697 Y99.788 E.01284
G1 X121.807 Y101.898 E.09426
G1 X121.269 Y101.898 E.01697
G1 X119.531 Y100.159 E.07768
G1 X119.364 Y100.53 E.01284
G1 X120.732 Y101.898 E.0611
G1 X120.195 Y101.898 E.01697
G1 X119.198 Y100.901 E.04452
G1 X119.032 Y101.272 E.01284
G1 X119.658 Y101.898 E.02793
G1 X119.121 Y101.898 E.01697
G1 X118.738 Y101.515 E.01709
M204 S1000
;WIPE_START
G1 F8640
G1 X119.121 Y101.898 E-.12494
G1 X119.658 Y101.898 E-.12405
G1 X119.032 Y101.272 E-.20421
G1 X119.198 Y100.901 E-.09389
G1 X119.85 Y101.553 E-.21292
;WIPE_END
G1 E-.04 F2100
G1 Z.6 F720
G1 X134.313 Y103.66 F10800
G1 Z.2 F720
G1 E.8 F2100
M204 S800
G1 F1200
G1 X133.978 Y103.324 E.01498
G1 X133.963 Y103.488 E.00518
G1 X133.853 Y103.737 E.0086
G1 X134.019 Y103.903 E.0074
G1 X133.853 Y104.274 E.01284
G1 X133.688 Y104.109 E.00735
G1 X133.523 Y104.481 E.01286
G1 X133.687 Y104.645 E.0073
G1 X133.521 Y105.016 E.01284
G1 X133.358 Y104.854 E.00725
G1 X133.193 Y105.226 E.01286
G1 X133.354 Y105.387 E.0072
G1 X133.188 Y105.758 E.01284
G1 X133.028 Y105.598 E.00715
G1 X132.864 Y105.971 E.01286
G1 X133.022 Y106.13 E.0071
G1 X132.856 Y106.501 E.01284
G1 X132.699 Y106.343 E.00704
G1 X132.534 Y106.715 E.01286
G1 X132.69 Y106.872 E.00699
G1 X132.524 Y107.243 E.01284
G1 X132.369 Y107.088 E.00694
G1 X132.192 Y107.448 E.01268
G1 X132.358 Y107.614 E.00744
G1 X132.192 Y107.985 E.01284
G1 X131.952 Y107.745 E.01073
G1 X131.913 Y107.787 E.00181
G1 X131.629 Y107.96 E.01049
G1 X132.026 Y108.357 E.01774
G1 X131.86 Y108.728 E.01284
G1 X131.22 Y108.087 E.02861
G1 X130.697 Y108.102 E.01651
G1 X131.694 Y109.099 E.04453
G1 X131.528 Y109.47 E.01284
G1 X130.16 Y108.102 E.06111
G1 X129.623 Y108.102 E.01697
G1 X131.362 Y109.841 E.07769
G1 X131.196 Y110.212 E.01284
G1 X129.085 Y108.102 E.09427
G1 X128.548 Y108.102 E.01697
G1 X131.03 Y110.584 E.11085
G1 X130.864 Y110.955 E.01284
G1 X128.011 Y108.102 E.12743
G1 X127.474 Y108.102 E.01697
G1 X130.698 Y111.326 E.14401
G1 X130.532 Y111.697 E.01284
G1 X126.937 Y108.102 E.16059
G1 X126.4 Y108.102 E.01697
G1 X130.366 Y112.068 E.17717
G1 X130.2 Y112.439 E.01284
G1 X125.862 Y108.102 E.19375
G1 X125.325 Y108.102 E.01697
G1 X130.034 Y112.811 E.21033
G1 X129.868 Y113.182 E.01284
G1 X124.788 Y108.102 E.22691
G1 X124.251 Y108.102 E.01697
G1 X129.702 Y113.553 E.24348
G1 X129.535 Y113.924 E.01284
G1 X129.25 Y113.638 E.01276
G1 X129.239 Y113.491 E.00467
G1 X129.083 Y113.068 E.01424
G1 X128.958 Y112.9 E.00664
G1 X128.715 Y112.683 E.01028
G1 X128.557 Y112.593 E.00573
G1 X128.305 Y112.499 E.0085
G1 X128.081 Y112.47 E.00714
G1 X123.714 Y108.102 E.1951
G1 X123.176 Y108.102 E.01697
G1 X127.536 Y112.462 E.19476
G1 X126.999 Y112.462 E.01697
G1 X122.639 Y108.102 E.19476
G1 X122.102 Y108.102 E.01697
M73 P5 R20
M73 Q5 S20
G1 X126.462 Y112.462 E.19475
G1 X125.925 Y112.462 E.01697
G1 X121.565 Y108.102 E.19475
G1 X121.028 Y108.102 E.01697
G1 X125.387 Y112.462 E.19475
G1 X124.85 Y112.462 E.01697
G1 X120.49 Y108.102 E.19475
G1 X119.953 Y108.102 E.01697
G1 X124.313 Y112.462 E.19475
G1 X123.776 Y112.462 E.01697
G1 X119.416 Y108.102 E.19474
G1 X118.879 Y108.102 E.01697
G1 X123.238 Y112.462 E.19474
G1 X122.701 Y112.462 E.01697
G1 X118.342 Y108.102 E.19474
G1 X117.804 Y108.102 E.01697
G1 X122.164 Y112.462 E.19474
G1 X121.627 Y112.462 E.01697
G1 X117.267 Y108.102 E.19474
G1 X116.73 Y108.102 E.01697
G1 X121.089 Y112.462 E.19474
G1 X120.552 Y112.462 E.01697
G1 X116.193 Y108.103 E.19473
G1 X115.977 Y108.103 E.00682
G1 X115.878 Y108.325 E.00768
G1 X120.015 Y112.462 E.18482
G1 X119.478 Y112.462 E.01697
G1 X115.712 Y108.696 E.16824
G1 X115.545 Y109.067 E.01284
G1 X118.94 Y112.462 E.15165
G1 X118.403 Y112.462 E.01697
G1 X115.379 Y109.438 E.13507
G1 X115.213 Y109.809 E.01284
G1 X117.866 Y112.462 E.11849
G1 X117.329 Y112.462 E.01697
G1 X115.047 Y110.18 E.10191
G1 X114.881 Y110.552 E.01284
G1 X116.792 Y112.462 E.08533
G1 X116.254 Y112.462 E.01697
G1 X114.715 Y110.923 E.06875
G1 X114.549 Y111.294 E.01284
G1 X115.717 Y112.462 E.05217
G1 X115.18 Y112.462 E.01697
G1 X114.383 Y111.665 E.03559
G1 X114.217 Y112.036 E.01284
G1 X114.643 Y112.462 E.01901
G1 X114.105 Y112.462 E.01697
G1 X113.923 Y112.279 E.00816
M204 S1000
;WIPE_START
G1 F8640
G1 X114.105 Y112.462 E-.05967
G1 X114.643 Y112.462 E-.12405
G1 X114.217 Y112.036 E-.13894
G1 X114.383 Y111.665 E-.09389
G1 X115.18 Y112.462 E-.26015
G1 X115.541 Y112.462 E-.0833
;WIPE_END
G1 E-.04 F2100
G1 Z.6 F720
G1 X129.072 Y113.998 F10800
G1 Z.2 F720
G1 E.8 F2100
M204 S800
G1 F1200
G1 X129.369 Y114.295 E.01329
G1 X129.203 Y114.666 E.01284
G1 X129.038 Y114.501 E.00737
G1 X128.873 Y114.874 E.01286
G1 X129.037 Y115.038 E.00732
G1 X128.871 Y115.409 E.01284
G1 X128.709 Y115.246 E.00727
G1 X128.544 Y115.618 E.01286
G1 X128.705 Y115.78 E.00722
G1 X128.539 Y116.151 E.01284
G1 X128.379 Y115.991 E.00717
G1 X128.214 Y116.363 E.01286
G1 X128.373 Y116.522 E.00712
G1 X128.207 Y116.894 E.01284
G1 X128.049 Y116.735 E.00707
G1 X127.884 Y117.108 E.01286
G1 X128.041 Y117.265 E.00702
G1 X127.875 Y117.636 E.01284
G1 X127.719 Y117.48 E.00697
G1 X127.554 Y117.852 E.01286
G1 X127.709 Y118.007 E.00691
G1 X127.543 Y118.378 E.01284
G1 X127.348 Y118.184 E.00869
